resources/icons/logo.svg

<svg xmlns="http://www.w3.org/2000/svg" viewBox="0 0 99 100">
  <path fill="#FFF" fill-rule="evenodd" d="M0 11.992C0 5.37 5.375 0 11.99 0h75.02C93.63 0 99 5.382 99 11.992v50.016c0 6.623-5.376 11.87-12.006 11.748 0 0-19.712-.562-21.488.244-1.776.806-15.24 24.456-15.24 24.456-.82 1.433-2.147 1.42-2.957-.01 0 0-13.144-23.487-15.35-24.446-2.208-.96-19.982-.304-19.982-.304C5.363 73.864 0 68.618 0 62.008V11.992zm18 10.015C18 20.9 18.9 20 19.992 20h41.016c1.1 0 1.992.9 1.992 2.007v30.986C63 54.1 62.1 55 61.008 55H19.992c-1.1 0-1.992-.9-1.992-2.007V22.007zm66.17-1.115c.432-.345.777-.182.77.367l-.498 34.068S67.218 38.682 67.218 36.486c0-2.195 16.95-15.594 16.95-15.594z"/>
</svg>

<svg xmlns="http://www.w3.org/2000/svg" width="300" height="200">
    <path stroke="none" d="M 61,20 L 20,20 C 18.9,20 18,20.9 18,22 L 18,53 C 18,54.1 18.9,55 20,55 L 61,55 C 62.1,55 63,54.1 63,53 L 63,22 C 63,20.9 62.1,20 61,20 Z M 84.17,20.89 C 84.17,20.89 67.22,34.29 67.22,36.49 67.22,38.68 84.44,55.33 84.44,55.33 L 84.94,21.26 C 84.95,20.71 84.6,20.55 84.17,20.89 Z M 99,11.99 L 99,62.01 C 99,68.63 93.62,73.88 86.99,73.76 86.99,73.76 67.28,73.19 65.51,74 63.73,74.81 50.27,98.46 50.27,98.46 49.45,99.89 48.12,99.88 47.31,98.45 47.31,98.45 34.17,74.96 31.96,74 29.75,73.04 11.98,73.7 11.98,73.7 5.36,73.86 0,68.62 0,62.01 L 0,11.99 C 0,5.37 5.38,0 11.99,0 L 87.01,0 C 93.63,0 99,5.38 99,11.99 Z M 99,11.99" />
</svg>
